svg/color/blkon.svg

<svg width="40" height="40" viewBox="0 0 40 40" fill="none" xmlns="http://www.w3.org/2000/svg">
<g clip-path="url(#clip0_821_4075)">
<path d="M20 0C31.0457 0 40 8.9543 40 20C40 31.0457 31.0457 40 20 40C8.95431 40 7.90517e-06 31.0457 0 20C6.58765e-07 8.95431 8.95431 1.97595e-06 20 0Z" fill="#D9D9D9"/>
<path d="M26 6C30.4183 6 34 9.58172 34 14V26C34 30.4183 30.4183 34 26 34H14C9.58172 34 6 30.4183 6 26V14C6 9.58172 9.58172 6 14 6H26Z" fill="black"/>
<path d="M16.8174 19.2399C17.3079 19.2399 17.6323 19.4407 17.8061 19.8038L17.2846 20.0741C17.1881 19.8733 17.0336 19.7807 16.8289 19.7806C16.5663 19.7806 16.35 19.9854 16.35 20.3253C16.35 20.6652 16.5393 20.8737 16.8328 20.8737C17.0606 20.8736 17.2035 20.7655 17.2962 20.5956L17.8061 20.8582C17.6285 21.2406 17.2537 21.4183 16.8095 21.4183C16.1761 21.4183 15.7204 21.0282 15.7204 20.3253C15.7204 19.603 16.238 19.2399 16.8174 19.2399ZM23.7273 19.236C24.3376 19.236 24.859 19.6532 24.859 20.3253C24.859 20.9935 24.3375 21.4183 23.7273 21.4183C23.117 21.4183 22.5956 20.9973 22.5956 20.3253C22.5956 19.6571 23.1132 19.236 23.7273 19.236ZM26.1529 19.2399C26.6434 19.2399 26.9679 19.4407 27.1417 19.8038L26.6203 20.0741C26.5237 19.8733 26.3692 19.7806 26.1645 19.7806C25.9019 19.7807 25.6855 19.9854 25.6855 20.3253C25.6855 20.6651 25.8748 20.8736 26.1683 20.8737C26.3962 20.8737 26.5392 20.7656 26.6319 20.5956L27.1417 20.8582C26.964 21.2406 26.5894 21.4183 26.1452 21.4183C25.5118 21.4183 25.0561 21.0282 25.056 20.3253C25.056 19.603 25.5736 19.2399 26.1529 19.2399ZM14.4226 19.2437C15.0212 19.2437 15.3843 19.5296 15.3843 20.0703V20.7925C15.3843 20.8659 15.4268 20.9085 15.5079 20.9085C15.5504 20.9085 15.5891 20.9008 15.6161 20.8931V21.3295C15.5002 21.3797 15.3611 21.399 15.2414 21.3952C15.0676 21.3952 14.89 21.3411 14.8089 21.1364C14.6737 21.2909 14.4148 21.4106 14.1251 21.4106C13.7003 21.4106 13.426 21.1943 13.426 20.781C13.426 20.3793 13.7544 20.1359 14.2604 20.1359C14.4612 20.1359 14.6273 20.1669 14.7586 20.1978V20.1321C14.7586 19.9042 14.6273 19.7652 14.3492 19.7652C14.1677 19.7652 13.9823 19.8424 13.8432 19.966L13.4917 19.572C13.7002 19.3866 14.0325 19.2437 14.4226 19.2437ZM29.7914 20.978C29.9227 20.978 30 21.0591 30 21.1827C30 21.3063 29.9227 21.3875 29.7914 21.3875C29.6601 21.3874 29.5829 21.3063 29.5829 21.1827C29.5829 21.0591 29.6601 20.9781 29.7914 20.978ZM11.2592 18.5871C11.9158 18.5833 12.2093 18.9193 12.2093 19.3248C12.2093 19.5566 12.1128 19.7535 11.8386 19.9042C12.1283 20.0123 12.2904 20.2519 12.2904 20.5648C12.2904 21.036 11.9737 21.3643 11.3132 21.3682H10V18.5871H11.2592ZM18.5901 18.5871V20.1282L19.3203 19.3094H20.0309L19.3318 20.0703L20.0773 21.3642V21.3682H19.3627L18.8914 20.5454L18.5901 20.8659V21.3682H17.9606V18.5871H18.5901ZM27.9181 18.5871V20.1282L28.6558 19.3094H29.3588L28.6597 20.0703L29.4052 21.3642V21.3682H28.6906L28.2194 20.5454L27.9181 20.8659V21.3682H27.2885V18.5871H27.9181ZM13.1788 21.3642H12.5454V18.5833H13.1788V21.3642ZM21.4214 18.5833C22.0587 18.5833 22.5029 18.8884 22.5029 19.487C22.5029 19.8694 22.3136 20.1398 21.9775 20.3059L22.5879 21.3642H21.8309L21.3016 20.4295H20.8961V21.3642H20.2433V18.5833H21.4214ZM29.7914 21.005C29.6871 21.005 29.6176 21.0668 29.6176 21.1827C29.6137 21.3024 29.6871 21.3603 29.7914 21.3603C29.8957 21.3603 29.9652 21.2986 29.9652 21.1827C29.9652 21.0668 29.8918 21.005 29.7914 21.005ZM29.7952 21.0784C29.8454 21.0784 29.8725 21.1055 29.8725 21.1441C29.8725 21.1789 29.8571 21.1982 29.8301 21.2098L29.8686 21.2831H29.8301L29.7952 21.2175H29.749V21.2831H29.7103V21.0784H29.7952ZM29.749 21.1827H29.7914C29.8184 21.1827 29.8339 21.175 29.8339 21.148C29.8339 21.1248 29.8223 21.1131 29.7952 21.1131H29.749V21.1827ZM14.4072 20.4952C14.187 20.4952 14.0788 20.6034 14.0788 20.7501C14.0789 20.8892 14.1754 20.9896 14.3723 20.9896C14.5809 20.9896 14.7624 20.866 14.7624 20.6767V20.5415C14.662 20.5183 14.5423 20.4952 14.4072 20.4952ZM23.7234 19.7806C23.4492 19.7807 23.2136 19.9699 23.2136 20.3253C23.2136 20.6767 23.4492 20.8737 23.7234 20.8737C23.9976 20.8737 24.2332 20.6767 24.2332 20.3253C24.2332 19.9699 23.9977 19.7806 23.7234 19.7806ZM10.6605 20.2209V20.8235H11.2321C11.4677 20.8235 11.5952 20.7038 11.5952 20.5222C11.5952 20.3368 11.46 20.2209 11.2321 20.2209H10.6605ZM20.8999 19.8772H21.3866C21.6879 19.8772 21.8347 19.7072 21.8347 19.5063C21.8347 19.2669 21.6956 19.1356 21.3866 19.1356H20.8999V19.8772ZM10.6605 19.124V19.7034H11.1858C11.4175 19.7034 11.5373 19.5952 11.5373 19.4059C11.5373 19.2167 11.3982 19.1241 11.1858 19.124H10.6605Z" fill="white"/>
</g>
<defs>
<clipPath id="clip0_821_4075">
<rect width="40" height="40" fill="white"/>
</clipPath>
</defs>
</svg>

<svg xmlns="http://www.w3.org/2000/svg" width="40" height="40" fill="none" viewBox="0 0 40 40"><g clip-path="url(#blkon_svg-a)"><path fill="#D9D9D9" d="M20 0c11.046 0 20 8.954 20 20s-8.954 20-20 20S0 31.046 0 20 8.954 0 20 0"/><path fill="#000" d="M26 6a8 8 0 0 1 8 8v12a8 8 0 0 1-8 8H14a8 8 0 0 1-8-8V14a8 8 0 0 1 8-8z"/><path fill="#fff" d="M16.817 19.24c.49 0 .815.2.99.564l-.522.27a.47.47 0 0 0-.456-.293c-.263 0-.479.204-.479.544s.19.549.483.549c.228 0 .37-.108.463-.278l.51.262c-.178.383-.552.56-.997.56-.633 0-1.089-.39-1.089-1.093 0-.722.518-1.085 1.097-1.085m6.91-.004c.61 0 1.132.417 1.132 1.09 0 .668-.522 1.092-1.132 1.092s-1.131-.42-1.131-1.093c0-.668.517-1.089 1.131-1.089m2.426.004c.49 0 .815.2.989.564l-.522.27a.47.47 0 0 0-.456-.293c-.262 0-.479.204-.479.544s.19.549.483.549a.49.49 0 0 0 .464-.278l.51.262c-.178.383-.553.56-.997.56-.633 0-1.089-.39-1.089-1.093 0-.722.518-1.085 1.097-1.085m-11.73.004c.598 0 .961.286.961.826v.723c0 .073.043.116.124.116a.4.4 0 0 0 .108-.016v.436a.9.9 0 0 1-.375.066c-.173 0-.351-.054-.432-.259-.135.155-.394.275-.684.275-.425 0-.699-.217-.699-.63 0-.402.328-.645.834-.645.201 0 .367.03.499.062v-.066c0-.228-.132-.367-.41-.367a.78.78 0 0 0-.506.201l-.351-.394c.208-.185.54-.328.93-.328m15.368 1.734c.132 0 .209.081.209.205s-.077.204-.209.204c-.13 0-.208-.08-.208-.204s.077-.205.208-.205m-18.532-2.39c.657-.005.95.331.95.737 0 .232-.096.428-.37.58.29.107.451.347.451.66 0 .471-.316.8-.977.803H10v-2.78zm7.331 0v1.54l.73-.819h.71l-.698.761.745 1.294v.004h-.714l-.472-.823-.3.32v.503h-.63v-2.78zm9.328 0v1.54l.738-.819h.703l-.7.761.746 1.294v.004h-.714l-.472-.823-.3.32v.503h-.63v-2.78zm-14.74 2.776h-.633v-2.78h.634zm8.243-2.78c.638 0 1.082.304 1.082.903 0 .382-.19.653-.526.819l.61 1.058h-.756l-.53-.934h-.405v.934h-.653v-2.78zm8.37 2.421c-.104 0-.173.062-.173.178-.004.12.07.177.173.177.105 0 .174-.061.174-.177s-.073-.178-.174-.178m.004.073c.05 0 .077.027.077.066 0 .035-.015.054-.042.066l.039.073h-.039l-.035-.066h-.046v.066h-.039v-.205zm-.046.105h.042c.027 0 .043-.008.043-.035q0-.035-.039-.035h-.046zm-15.342-.688c-.22 0-.328.108-.328.255 0 .14.096.24.293.24.209 0 .39-.124.39-.313v-.136c-.1-.023-.22-.046-.355-.046m9.316-.714c-.274 0-.51.189-.51.544 0 .352.236.549.51.549.275 0 .51-.197.51-.549 0-.355-.235-.544-.51-.544m-13.062.44v.602h.571c.236 0 .363-.12.363-.3 0-.186-.135-.302-.363-.302zm10.239-.344h.487c.3 0 .448-.17.448-.37 0-.24-.14-.371-.448-.371H20.9zm-10.24-.753v.58h.526c.232 0 .351-.109.351-.298 0-.19-.139-.282-.351-.282z"/></g><defs><clipPath id="blkon_svg-a"><path fill="#fff" d="M0 0h40v40H0z"/></clipPath></defs></svg>
